X:1
T:James Gibb editions
T:Non mi date - Antonelli da Rimini
%%score [ 1 2 3 ]
L:1/8
Q:1/4=90
M:2/2
K:C
V:1 treble-8 nm="Tenor I" snm="T I"
V:2 treble-8 nm="Tenor II" snm="T II"
V:3 bass nm="Bass" snm="B"
V:1
"^Non mi date""^Cornelio Antonelli da Rimini\n( C16th)" z4 e4- | e2 e2 d4 | d2 B2 c4 | c2 e4 d2 | %4
w: Non|* mi da-|te tor- men-|to ne più|
w: De\-|* po- ne-|te lo sde-|gno~~e'l fie- ro~~or-|
 c4 B4 | z2 G2 A2 B2 | c2 c2 B4 |[M:2/2][K:treble-8] z2 d2 e2 ^f2 | g2 e2 ^f4 | z2 e2 d3 c | %10
w: do- glia|Ren- de- te-|mi'l cor mio,|ren- de- te-|mi'l cor mio|ch'in voi è|
w: go- glio|Le- va- te|la ca- gion,|le- va- te|la ca- gion|per cui mi|
 B4 ^c4 | z2 e2 | e2 e2 a4 | ^g4 z2 e2 | e2 e2 c4 | B8 ||[M:3/2][Q:1/4=180] c8 e4 | d8 e4 | e8 e4 | %19
w: pos- to.|Che|più non vo-|glio, che|più non vo-|glio|Hor al-|le- gra,|hor do-|
w: do- glio.|||||||||
 ^f8 g4 ||[M:2/2][Q:1/4=90] e6 e2 | d4 c4 | B4 !fermata!^c4 :| %23
w: glio- sa|nell' a-|mor lan-|gui- re.|
w: ||||
V:2
 z4 c4- | c2 B2 B4 | A2 ^G2 A4 | =G2 G4 B2 | A4 ^G4 | z2 E2 E2 D2 | A2 A2 ^G4 | %7
w: Non|* mi da-|te tor- men-|to ne più|do- glia|Ren- de- te-|mi'l cor mio,|
w: De\-|* po- ne-|te lo sde-|gno~~e'l fie- ro~~or-|go- glio|Le- va- te|la ca- gion,|
[M:2/2][K:treble-8] z2 B2 B2 A2 | G2 A2 A4 | z2 G2 A3 A | (A2 ^G2) A4 | z2 c2 | %12
w: ren- de- te-|mi'l cor mio|ch'in voi è|pos\- * to|Che|
w: le- va- te|la ca- gion|per cui mi|do\- * glio.||
 c2 [Be]2 ([Af]3 e) | e4 z2 c2 | c2 B2 A4 | ^G8 ||[M:3/2] A8 G4 | A8 c4 | c8 c4 | d8 B4 || %20
w: più non vo\- *|glio, che|più non vo-|glio|Hor al-|le- gra,|hor do-|glio- sa|
w: ||||||||
[M:2/2] c6 c2 | B4 A4 | (A2 ^G2) !fermata!A4 :| %23
w: nell' a-|mor lan-|gui\- * re.|
w: |||
V:3
 z4 A,4- | A,2 E,2 G,4 | D,2 E,2 F,4 | C,2 C,4 G,,2 | (A,,B,,C,D,) E,4 | z2 C,2 A,,2 G,,2 | %6
w: Non|* mi da-|te tor- men-|to ne più|do\- * * * glia|Ren- de- te-|
w: De\-|* po- ne-|te lo sde-|gno~~e'l fie- ro~~or-|go\- * * * glio|Le- va- te|
 A,,2 F,2 E,4 |[M:2/2] z2 G,2 G,2 D,2 | E,2 A,,2 D,4 | z2 C,2 D,3 F, | E,4 A,,4 | z2 A,2 | %12
w: mi'l cor mio,|ren- de- te-|mil cor mio|ch'in voi è|pos- to|Che|
w: la ca- gion,|le- va- te|la ca- gion|per cui mi|do- glio.||
 A,2 E,2 F,4 | E,4 z2 A,2 | A,2 E,2 A,,4 | E,8 ||[M:3/2] F,8 C,4 | D,8 A,,4 | A,,8 A,,4 | %19
w: più non vo-|glio, che|più non vo-|glio|Hor al-|le- gra,|hor do-|
w: |||||||
 B,,8 E,4 ||[M:2/2] C,6 C,2 | G,,4 A,,4 | E,4 !fermata!A,,4 :| %23
w: glio- sa|nell' a-|mor lan-|gui- re.|
w: ||||

